X: 1
T: Carollans Devotion
B: A COLECTION of the most Celebrated Irish Tunes2 p.2a
N: The 2nd part had an initial repeat symbol, but no final repeat symbol.
M: 3/4
L: 1/8
K: Gdor
(f/g/a) |\
b2 (a/g/f) (f/g/a) | (gf) (ed) (d/e/f) | (dc) (BA) (GF) |
F4 (GA) | B2 (Bd) (cB) | c2 (df) (gd) | (cB) (AG) (GA) | TG6 :|
|: (G/F/E) |\
D2 G2 G2 | G>A G>F EF | D2 F2- F2 | F>G F>E DF |
D2 B2- B2 | (Bc) (AB) (GA) | F2 f2 (fg) | Tf4 (f/g/a) |
b2 (ba) (gb) | b2 d2 d2 | d>c B>c d>e | f2 A2 A2 |
B>A G>A B>c | d2 G2 (F/G/A) | (GF) (ED) (DE) | D4 (c/d/e) |
f2- f2 (f/g/a) | (gf) (ed) (d/e/f) | (dc) (BA) (GF) | TF4 (F/G/A) |
B2 (Bd) (cB) | c2 (df) (gd) | (cB) (AG) (GA) | G6 :|
